dist/svgs/globe.svg

<svg xmlns="http://www.w3.org/2000/svg" viewBox="0 0 512 512"><path d="M189 320q-14-6-26-14t-22-19q-21-21-33-48-11-26-11-59 0-34 11-59 12-28 33-49 19-19 48-32 27-12 59-12t59 12q28 12 48 32 21 21 33 49 12 27 12 59 0 31-12 59-12 27-33 48-20 21-48 33-28 11-59 11t-59-11zm0-34q9 6 20 9-2-3-3.5-6.5T202 282q-2-5-6-13-2-4-2.5-7.5T191 255l-3-15h-45q7 12 13 18 5 8 15 16 7 6 18 12zm82-29q2-5 3-8.5t3-8.5h-58q2 5 3 8.5t3 8.5q2 8 7 15 2 4 3.5 7.5t3.5 7.5l9 14q2-3 4.5-6.5t4.5-7.5 3.5-7.5 3.5-7.5 4-7.5 3-7.5zm69 1q6-6 13-18h-45q0 4-1 7.5t-2 7.5q-2 4-2.5 7t-2.5 7q-2 3-3 6.5t-3 6.5-3.5 6.5-3.5 6.5q11-3 20-9 5-3 9.5-6t9.5-6l7.5-7.5 6.5-8.5zm-25-109v8q0 2 .5 4t.5 4v38q0 2-.5 3.5t-.5 3.5h51q2-4 2-7 1-2 1-4t1-4q0-4 1-7v-16q-1-3-1-8-1-2-1-4t-1-4q0-1-2-7h-51zm-8-75q-9-6-20-9 2 3 3.5 6l3.5 7q2 3 3 6.5t3 6.5q2 4 2.5 7t2.5 7q1 3 2 6.5t1 7.5h45q-3-5-6-9t-7-9q-3-4-6.5-7.5L326 86q-5-3-9.5-6t-9.5-6zm-82 29q-2 4-3 8t-3 8h58q-2-4-3-8t-3-8q-1-5-3-8.5t-4-7.5-3.5-7.5T257 72l-9-14-9 15q-2 4-3.5 7.5T232 87q-2 5-4 8.5t-3 7.5zm-15 85q0 2 .5 3.5t.5 3.5q1 3 1 8 0 2 .5 3.5t.5 3.5h70q0-2 .5-3.5t.5-3.5q1-2 1-4t1-4q0-2 .5-3.5t.5-3.5v-16q0-5-1-7v-8q-1-2-1-4t-1-4h-71q0 2-.5 4t-.5 4q0 5-1 8 0 2-.5 3.5t-.5 3.5v16zm-54-87q-3 5-6.5 9t-6.5 9h45q2-10 3-14 2-4 2.5-7t2.5-7q2-3 3-6.5t3-6.5q3-8 7-13-11 3-20 9l-18 12zm-27 102q1 2 1 3.5t1 3.5h52v-7q0-2-.5-4t-.5-4v-7q-1-3-1-8v-15q1-3 1-8t1-8h-52q-1 2-1 3.5t-1 3.5q0 2-.5 4t-.5 4q-1 3-1 8 0 2-.5 4t-.5 4 .5 4 .5 4q0 5 1 7 0 2 .5 4t.5 4zm336-23q0 43-16 81t-43.5 67.5-64.5 47-79 20.5v88h87v28H147v-28h87v-88q-21-1-41-6.5T154 375v1l-2-2q-11-5-23-13l16-23v1l7-11 23 15-6 9q37 17 79 17 39 0 73.5-15t60-40.5 40.5-60 15-73.5q0-42-16-77.5T376 41l-5 8-23-15 6-11 15-23q44 29 70 76t26 104z"/></svg>

<?xml version="1.0" encoding="UTF-8" standalone="no"?><svg   xmlns:svg="http://www.w3.org/2000/svg"   xmlns="http://www.w3.org/2000/svg"   version="1.1"   width="512"   height="512"   viewBox="0 0 512 512">  <path     d="M189 320Q175 314 163 306T141 287Q120 266 108 239Q97 213 97 180Q97 146 108 121Q120 93 141 72Q160 53 189 40Q216 28 248 28T307 40Q335 52 355 72Q376 93 388 121Q400 148 400 180Q400 211 388 239Q376 266 355 287Q335 308 307 320Q279 331 248 331T189 320zM189 286Q198 292 209 295Q207 292 205.5 288.5T202 282Q200 277 196 269Q194 265 193.5 261.5T191 255L188 240H143Q150 252 156 258Q161 266 171 274Q178 280 189 286zM271 257Q273 252 274 248.5T277 240H219Q221 245 222 248.5T225 257Q227 265 232 272Q234 276 235.5 279.5T239 287L248 301Q250 298 252.5 294.5T257 287T260.5 279.5T264 272T268 264.5T271 257zM340 258Q346 252 353 240H308Q308 244 307 247.5T305 255Q303 259 302.5 262T300 269Q298 272 297 275.5T294 282T290.5 288.5T287 295Q298 292 307 286Q312 283 316.5 280T326 274L333.5 266.5T340 258zM315 149V157Q315 159 315.5 161T316 165V172V180V188V195V203Q316 205 315.5 206.5T315 210H366Q368 206 368 203Q369 201 369 199T370 195Q370 191 371 188V180V172Q370 169 370 164Q369 162 369 160T368 156Q368 155 366 149H315zM307 74Q298 68 287 65Q289 68 290.5 71L294 78Q296 81 297 84.5T300 91Q302 95 302.5 98T305 105Q306 108 307 111.5T308 119H353Q350 114 347 110T340 101Q337 97 333.5 93.5L326 86Q321 83 316.5 80T307 74zM225 103Q223 107 222 111T219 119H277Q275 115 274 111T271 103Q270 98 268 94.5T264 87T260.5 79.5T257 72L248 58L239 73Q237 77 235.5 80.5T232 87Q230 92 228 95.5T225 103zM210 188Q210 190 210.5 191.5T211 195Q212 198 212 203Q212 205 212.5 206.5T213 210H283Q283 208 283.5 206.5T284 203Q285 201 285 199T286 195Q286 193 286.5 191.5T287 188V180V172Q287 167 286 165V157Q285 155 285 153T284 149H213Q213 151 212.5 153T212 157Q212 162 211 165Q211 167 210.5 168.5T210 172V180V188zM156 101Q153 106 149.5 110T143 119H188Q190 109 191 105Q193 101 193.5 98T196 91Q198 88 199 84.5T202 78Q205 70 209 65Q198 68 189 74L171 86zM129 203Q130 205 130 206.5T131 210H183V203Q183 201 182.5 199T182 195V188Q181 185 181 180V172V165Q182 162 182 157T183 149H131Q130 151 130 152.5T129 156Q129 158 128.5 160T128 164Q127 167 127 172Q127 174 126.5 176T126 180T126.5 184T127 188Q127 193 128 195Q128 197 128.5 199T129 203zM465 180Q465 223 449 261T405.5 328.5T341 375.5T262 396V484H349V512H147V484H234V396Q213 395 193 389.5T154 375V376L152 374Q141 369 129 361L145 338V339L152 328L175 343L169 352Q206 369 248 369Q287 369 321.5 354T381.5 313.5T422 253.5T437 180Q437 138 421 102.5T376 41L371 49L348 34L354 23L369 0Q413 29 439 76T465 180z"     id="globe" /></svg>
